X: 1
T: Dhu Hill, The
M: 6/8
L: 1/8
R: jig
K: Amaj
F2A cdc | BAG Bcd | c2c fed | cBc F3  :|
cBc ABc | dcd B3  | cBc f2f | cAF F3  :|
f2d dcB | ABG FGA | B2B cBc | dcB ABG :|
